X:1
T:Title
%%score { ( 1 3 ) | ( 2 4 ) }
L:1/8
M:4/4
K:Bb
V:1 treble nm="Grand Piano"
V:3 treble 
V:2 bass 
V:4 bass 
V:1
 z4 z2[Q:1/4=100] [DB]2 | [DA]2 [DG]2 [DF]2 [DG]2 | A2 G2 F2 F2 | c6 z2 | d6 z2 | %5
 [DA]2 [DG]2 [DF]2 [_DG]2 | [CA]2 [Fd]2 [Fc]2 z2 | z2 [B,=EA]2 [B,EG]2 c2 |[M:3/4] F6 |[M:1/4] F2 | %10
[M:4/4] z2 f2 f2 f2 | f2 [DA]2 [DG]2 [DB]2 | z2 f2 f2 f2 | f2 F2 G2 _A2 | z2 f2 f2 G2 | %15
 z2 f2 f2 [Ge]2 | [Fd]2 [DB]2 [DF]4- | [DF]2 [A,F]2 [A,=EG]2 [C_EA]2 | [B,DB]8- |[M:1/4] [B,DB]2 | %20
[M:3/4] [DA]2 [DG]2 [_DB]2 |[M:4/4] z2 c2 c2 c2 | c2 [FA]2 [F_A]2 [F=A]2 | [=Ec]2 [DB]4 A2 | %24
 G2 A4 G2 | z2 c2 c2 c2 | c2 F2 G2 A2 | z2 f2 f2 f2 | f2 [DA]2 [DG]2 [DB]2 | z2 f2 f2 f2 | %30
 f2 F2 G2 _A2 | z2 f2 f2 G2 | z2 f2 f2 [Ge]2 | [Fd]2 [DB]2 [DF]4- | [DF]2 [A,F]2 [A,=EG]2 [C_EA]2 | %35
 [B,DB]8- |[M:1/4] [B,DB]2 |[M:3/4] [B,DA]2 [DB]2 [D=B]2 |[M:4/4] z2 g2 g2 g2 | %39
 g2 G2 [GB]2 [^Fc]2 | z2 f2 f2 B2 | c6 z2 | [B,DB]8- |[M:3/4] [B,DB]6 |] %44
V:2
 z4 z2 [B,,F,]2 | [B,,F,]2 [B,,F,]2 [B,,F,]2 [B,,B,]2 | [F,CE]2 [F,B,E]2 [F,A,E]2 z2 | %3
 z2 [F,B,E]2 [F,A,E]2 z2 | z2 [B,,B,]2 [B,,B,]2 [B,,F,]2 | [B,,F,]2 [B,,F,]2 [B,,F,]2 [B,,F,]2 | %6
 [C,F,]2 [C,B,]2 [C,A,]2[K:treble] A2 | c6[K:bass] z2 |[M:3/4] [F,A,]2 G,2 A,2 |[M:1/4] F,2 | %10
[M:4/4] [B,,F,]8- | [B,,F,]2 [B,,B,]2 [B,,B,]2 [B,,B,]2 | [F,CE]8- | %13
 [F,CE]2 [F,A,E]2 [F,B,E]2 [F,=B,E]2 | [F,CE]6 [F,A,E]2 | [F,A,E]6 [F,A,]2 | %16
 [B,,B,]2 [B,,B,]2 z2 f2 | f2 F,2 F,2 F,2 | z2 f2 f2 f2 |[M:1/4] f2 | %20
[M:3/4][K:bass] [B,,B,]2 [B,,B,]2 [B,,F,]2 |[M:4/4] [C,F,C]8- | [C,F,C]2 [C,C]2 [C,=B,]2 [C,C]2 | %23
 [C,G,]2 [C,G,]4 [C,=E,C]2 | [C,=E,B,]2 [C,E,C]4 [C,E,B,]2 | [F,A,]8- | %26
 [F,A,]2 [F,A,]2 [F,B,=E]2 [F,C_E]2 | [B,,F,]8- | [B,,F,]2 [B,,B,]2 [B,,B,]2 [B,,B,]2 | [F,CE]8- | %30
 [F,CE]2 [F,A,E]2 [F,B,E]2 [F,=B,E]2 | [F,CE]6 [F,A,E]2 | [F,A,E]6 [F,A,]2 | %33
 [B,,B,]2 [B,,B,]2 z2 f2 | f2 F,2 F,2 F,2 | z2 f2 f2 f2 |[M:1/4] f2 | %37
[M:3/4][K:bass] B,,2 [B,,F,]2 [B,,F,]2 |[M:4/4] [E,G,E]8- | [E,G,E]2 [E,B,E]2 [E,B,]2 [E,B,]2 | %40
 [F,B,F]6 [F,B,D]2 | [F,A,E]6 F,2 | z2 f2 f2 f2 |[M:3/4] f6 |] %44
V:3
 x8 | x8 | x8 | z2 G2 F2 F2 | z2 [DG]2 [DF]2 [DB]2 | x8 | x8 | x8 |[M:3/4] z2 B,2 C2 |[M:1/4] x2 | %10
[M:4/4] [DB]8- | [DB]2 z2 z4 | A8- | A2 z2 z4 | A6 z2 | F6 z2 | x8 | x8 | x8 |[M:1/4] x2 | %20
[M:3/4] x6 |[M:4/4] A8- | A2 z2 z4 | x8 | x8 | F8- | F2 z2 z4 | [DB]8- | [DB]2 z2 z4 | A8- | %30
 A2 z2 z4 | A6 z2 | F6 z2 | x8 | x8 | x8 |[M:1/4] x2 |[M:3/4] x6 |[M:4/4] c8- | c2 z2 z4 | d6 z2 | %41
 z2 f2 f2 [CEA]2 | x8 |[M:3/4] x6 |] %44
V:4
 x8 | x8 | x8 | x8 | x8 | x8 | x6[K:treble] x2 | z2[K:bass] C,2 C,2 z2 |[M:3/4] x6 |[M:1/4] x2 | %10
[M:4/4] x8 | x8 | x8 | x8 | x8 | x8 | z4 [B,,B,]4- | [B,,B,]2 z2 z4 | B,,8- |[M:1/4] B,,2 | %20
[M:3/4][K:bass] x6 |[M:4/4] x8 | x8 | x8 | x8 | x8 | x8 | x8 | x8 | x8 | x8 | x8 | x8 | %33
 z4 [B,,B,]4- | [B,,B,]2 z2 z4 | B,,8- |[M:1/4] B,,2 |[M:3/4][K:bass] x6 |[M:4/4] x8 | x8 | x8 | %41
 x8 | B,,8- |[M:3/4] B,,6 |] %44

